X:1
T:[ID 6-7]
T:[ID 6-7]
T:Bezeichnung standardisiert: Menuett Menuet
T:Urheber unbekannt Erstbeleg: 1775 (Datum in der schriftlichen Quelle) Datum in der hier transkribierten schriftlichen Quelle: vermutlich um 1800
C:Urheber unbekannt
C:Erstbeleg: 1775 (Datum in der schriftlichen Quelle)
C:Datum in der hier transkribierten schriftlichen Quelle: vermutlich um 1800
%%score 1 ( 2 3 )
L:1/8
M:3/4
K:D
V:1 treble 
V:2 treble nm="V. 2do"
V:3 treble 
V:1
 dfec d2 | fage f2 | dfad'c'b | a2 g2 f2 | ea^gb a2 | (ed)(dc) c2 | BdcBA^G | A6 :: Acec A2 | %9
 (ag)(gf) f2 | Acec A2 | (gf)(fe) e2 | dfad'c'b | (ag)(gf) f2 | egfedc | d6 :| %16
V:2
 !fermata!FAGE F2 | dfec d2 | Fdffeg | f2 e2 d2 | c2 Bd c2 | cBBA A2 | ^GfedcB | c6 :: cAec A2 | %9
 feed d2 | x4 c2 | eddc c2 | d2 dfeg | gfed d2 | GBAGFE | F6 :| %16
V:3
 x6 | x6 | x6 | x6 | x6 | x6 | x6 | x6 :: x6 | x6 | cAec A2 | x6 | x6 | x6 | x6 | x6 :| %16

